icons/ruler-2-line.svg

<svg xmlns="http://www.w3.org/2000/svg" width="24" height="24" fill="none"><g clip-path="url(#a)"><g><path fill="#121212" d="M17 19H19V14H10V5H5V7H7V9H5V11H8V13H5V15H7V17H5V19H7V17H9V19H11V16H13V19H15V17H17V19ZM12 12H20C20.2652 12 20.5196 12.1054 20.7071 12.2929C20.8946 12.4804 21 12.7348 21 13V20C21 20.2652 20.8946 20.5196 20.7071 20.7071C20.5196 20.8946 20.2652 21 20 21H4C3.73478 21 3.48043 20.8946 3.29289 20.7071C3.10536 20.5196 3 20.2652 3 20V4C3 3.73478 3.10536 3.48043 3.29289 3.29289C3.48043 3.10536 3.73478 3 4 3H11C11.2652 3 11.5196 3.10536 11.7071 3.29289C11.8946 3.48043 12 3.73478 12 4V12Z"/></g></g><defs><clipPath id="a"><rect width="24" height="24" fill="white"/></clipPath></defs></svg>

<svg width="24" height="24" fill="none" xmlns="http://www.w3.org/2000/svg"><g clip-path="url(#a)"><path d="M17 19h2v-5h-9V5H5v2h2v2H5v2h3v2H5v2h2v2H5v2h2v-2h2v2h2v-3h2v3h2v-2h2v2Zm-5-7h8a1 1 0 0 1 1 1v7a1 1 0 0 1-1 1H4a1 1 0 0 1-1-1V4a1 1 0 0 1 1-1h7a1 1 0 0 1 1 1v8Z" /></g><defs><clipPath id="a"><path fill="#fff" d="M0 0h24v24H0z"/></clipPath></defs></svg>
